X:1
T:Olaf, CM
T:Arranged from Franz Josef Haydn (1732-1809)
T:Olaf, CM
T:Public Domain
C:Arranged from Franz Josef Haydn (1732-1809)
Z:Public Domain
%%score ( 1 2 ) ( 3 4 )
L:1/8
M:3/4
K:G
V:1 treble 
V:2 treble 
V:3 bass 
V:4 bass 
V:1
 D2 | [DB]3 [CA] [B,G][DF] | [DF][CE] [B,D]2 [B,G]2 | [Ec]3 [DB] [CA][EG] | (G2 F2) [CD]2 | %5
 [B,B]3 [DG] [DA][DB] | [Ec]>[Fd] [Ge]2 (cA) | [DG]D [GB]2 [FA]2 | G4 |] %9
V:2
 D2 | x6 | x6 | x6 | D4 x2 | x6 | x4 E2 | x D x4 | G4 |] %9
V:3
 [G,B,]2 | G,3 [D,F,] [E,G,][B,,G,] | [C,G,][E,G,] G,2 [E,B,]2 | [A,,A,]3 [B,,^G,] [C,A,][^C,^A,] | %4
 (B,2 A,2) [D,F,]2 | [G,,G,]3 [G,B,] [F,A,][=F,G,] | [E,C]>[D,C] [C,C]2 (A,C) | %7
 [D,B,][D,B,] [D,D]2 [D,C]2 | [G,,B,]4 |] %9
V:4
 x2 | G,3 x3 | x2 G,2 x2 | x6 | D,4 x2 | x6 | x4 C,2 | x6 | x4 |] %9

